common/resources/fonts/svg/table.svg

<svg width="1024" height="1024" viewBox="0 0 1024 1024">
    <path d="M52 52v920h920V52H52zm287.5 862.5h-230V742h230v172.5zm0-230h-230V512h230v172.5zm0-230h-230V282h230v172.5zm287.5 460H397V742h230v172.5zm0-230H397V512h230v172.5zm0-230H397V282h230v172.5zm287.5 460h-230V742h230v172.5zm0-230h-230V512h230v172.5zm0-230h-230V282h230v172.5z" fill-rule="evenodd"/>
</svg>

<?xml version="1.0" encoding="UTF-8" standalone="no"?>
<svg width="1024px" height="1024px" viewBox="0 0 1024 1024" version="1.1" xmlns="http://www.w3.org/2000/svg" xmlns:xlink="http://www.w3.org/1999/xlink">
    <!-- Generator: Sketch 3.7.1 (28215) - http://www.bohemiancoding.com/sketch -->
    <title>table</title>
    <desc>Created with Sketch.</desc>
    <defs></defs>
    <g id="Page-1" stroke="none" stroke-width="1" fill="none" fill-rule="evenodd">
        <g id="table" fill="#000000">
            <path d="M52,52 L52,972 L972,972 L972,52 L52,52 L52,52 Z M339.5,914.5 L109.5,914.5 L109.5,742 L339.5,742 L339.5,914.5 L339.5,914.5 Z M339.5,684.5 L109.5,684.5 L109.5,512 L339.5,512 L339.5,684.5 L339.5,684.5 Z M339.5,454.5 L109.5,454.5 L109.5,282 L339.5,282 L339.5,454.5 L339.5,454.5 Z M627,914.5 L397,914.5 L397,742 L627,742 L627,914.5 L627,914.5 Z M627,684.5 L397,684.5 L397,512 L627,512 L627,684.5 L627,684.5 Z M627,454.5 L397,454.5 L397,282 L627,282 L627,454.5 L627,454.5 Z M914.5,914.5 L684.5,914.5 L684.5,742 L914.5,742 L914.5,914.5 L914.5,914.5 Z M914.5,684.5 L684.5,684.5 L684.5,512 L914.5,512 L914.5,684.5 L914.5,684.5 Z M914.5,454.5 L684.5,454.5 L684.5,282 L914.5,282 L914.5,454.5 L914.5,454.5 Z" id="Shape"></path>
        </g>
    </g>
</svg>
